src/assets/whyussvg4.svg

"<svg xmlns=\"http://www.w3.org/2000/svg\" viewBox=\"0 0 48 48\" fill=\"none\"><g clip-path=\"url(#clip0_1192_8803)\"><path d=\"M31.5 31.5C30.9825 31.5 30.5625 31.92 30.5625 32.4375C30.5625 32.955 30.9825 33.375 31.5 33.375C32.0175 33.375 32.4375 32.955 32.4375 32.4375C32.4375 31.92 32.0175 31.5 31.5 31.5Z\" fill=\"#CCCCCC\"></path><path d=\"M18.75 30.5625C18.2329 30.5625 17.8125 30.1421 17.8125 29.625C17.8125 29.1079 18.2329 28.6875 18.75 28.6875C19.0822 28.6875 19.4327 28.8571 19.7641 29.1775C20.1361 29.5375 20.7298 29.528 21.0898 29.1555C21.4497 28.7834 21.4399 28.1902 21.0678 27.8302C20.5921 27.3695 20.116 27.1091 19.6875 26.967V25.875C19.6875 25.3572 19.2679 24.9375 18.75 24.9375C18.2322 24.9375 17.8125 25.3572 17.8125 25.875V26.9736C16.7212 27.3607 15.9375 28.403 15.9375 29.625C15.9375 31.1759 17.1991 32.4375 18.75 32.4375C19.2668 32.4375 19.6875 32.8579 19.6875 33.375C19.6875 33.8921 19.2668 34.3125 18.75 34.3125C18.3494 34.3125 17.9169 34.0605 17.5324 33.6031C17.1995 33.2069 16.6081 33.1556 16.2118 33.4889C15.8152 33.8221 15.7643 34.4136 16.0972 34.8098C16.5985 35.406 17.1878 35.8213 17.8125 36.0308V37.125C17.8125 37.6428 18.2322 38.0625 18.75 38.0625C19.2679 38.0625 19.6875 37.6428 19.6875 37.125V36.0264C20.7785 35.6393 21.5625 34.597 21.5625 33.375C21.5625 31.8241 20.3009 30.5625 18.75 30.5625Z\" fill=\"#CCCCCC\"></path><path d=\"M11.25 15.5625C11.7678 15.5625 12.1875 15.1428 12.1875 14.625V10.875C12.1875 10.3572 11.7678 9.9375 11.25 9.9375C10.7322 9.9375 10.3125 10.3572 10.3125 10.875V14.625C10.3125 15.1428 10.7322 15.5625 11.25 15.5625Z\" fill=\"#CCCCCC\"></path><path d=\"M44.25 22.125V14.625C44.25 12.0403 42.1472 9.9375 39.5625 9.9375H34.3125V2.8125C34.3125 1.2616 33.0509 0 31.5 0H14.0625C12.5116 0 11.25 1.2616 11.25 2.8125V6.1875H8.4375C6.8866 6.1875 5.625 7.4491 5.625 9V9.9375H4.6875C2.10278 9.9375 0 12.0403 0 14.625V43.3125C0 45.8972 2.10278 48 4.6875 48H33.375C35.6385 48 37.5326 46.3872 37.968 44.25H39.5625C42.1472 44.25 44.25 42.1472 44.25 39.5625V37.125H45.1875C46.7384 37.125 48 35.8634 48 34.3125V25.875C48 23.8074 46.3176 22.125 44.25 22.125ZM46.125 25.875C46.125 26.9106 45.2856 27.75 44.25 27.75V24C45.2838 24 46.125 24.8412 46.125 25.875ZM39.5625 11.8125C41.1134 11.8125 42.375 13.0741 42.375 14.625V27.75H38.0625V22.125C38.0625 19.8615 36.4497 17.9674 34.3125 17.532V11.8125H39.5625ZM13.125 2.8125C13.125 2.29541 13.5454 1.875 14.0625 1.875H31.5C32.0171 1.875 32.4375 2.29541 32.4375 2.8125V17.4375H28.125V9C28.125 7.4491 26.8634 6.1875 25.3125 6.1875H13.125V2.8125ZM22.5 17.4375V8.0625H25.3125C25.8296 8.0625 26.25 8.48291 26.25 9V17.4375H22.5ZM16.875 17.4375V8.0625H20.625V17.4375H16.875ZM7.5 9C7.5 8.48291 7.92041 8.0625 8.4375 8.0625H15V17.4375H7.5V9ZM4.6875 11.8125H5.625V17.4375H4.88818C3.33875 17.4375 1.875 16.3154 1.875 14.625C1.875 13.0741 3.1366 11.8125 4.6875 11.8125ZM33.375 46.125H4.6875C3.1366 46.125 1.875 44.8634 1.875 43.3125V18.3171C2.71326 18.9415 3.76611 19.3125 4.88818 19.3125H33.375C34.9259 19.3125 36.1875 20.5741 36.1875 22.125V27.75H29.625C28.0741 27.75 26.8125 29.0116 26.8125 30.5625V34.3125C26.8125 35.8634 28.0741 37.125 29.625 37.125H36.1875V43.3125C36.1875 44.8634 34.9259 46.125 33.375 46.125ZM42.375 39.5625C42.375 41.1134 41.1134 42.375 39.5625 42.375H38.0625V37.125H42.375V39.5625ZM45.1875 35.25H29.625C29.1079 35.25 28.6875 34.8296 28.6875 34.3125V30.5625C28.6875 30.0454 29.1079 29.625 29.625 29.625H44.25C44.9191 29.625 45.561 29.45 46.125 29.1229V34.3125C46.125 34.8296 45.7046 35.25 45.1875 35.25Z\" fill=\"#CCCCCC\"></path><path d=\"M39.5625 31.5H35.25C34.7322 31.5 34.3125 31.9197 34.3125 32.4375C34.3125 32.9553 34.7322 33.375 35.25 33.375H39.5625C40.0803 33.375 40.5 32.9553 40.5 32.4375C40.5 31.9197 40.0803 31.5 39.5625 31.5Z\" fill=\"#CCCCCC\"></path></g><defs><clipPath id=\"clip0_1192_8803\"><rect width=\"48\" height=\"48\" fill=\"white\"></rect></clipPath></defs></svg>"

<svg xmlns="http://www.w3.org/2000/svg" fill="none" viewBox="0 0 48 48"><g fill="#CCC" clip-path="url(#a)"><path d="M31.5 31.5a.938.938 0 1 0 0 1.876.938.938 0 0 0 0-1.876ZM18.75 30.563a.938.938 0 0 1 0-1.875c.332 0 .683.17 1.014.49a.937.937 0 1 0 1.304-1.348c-.476-.46-.952-.72-1.38-.863v-1.092a.937.937 0 1 0-1.875 0v1.099a2.817 2.817 0 0 0-1.875 2.651 2.816 2.816 0 0 0 2.812 2.813.939.939 0 0 1 0 1.874c-.4 0-.833-.252-1.218-.709a.937.937 0 1 0-1.435 1.207c.502.596 1.09 1.011 1.715 1.22v1.095a.937.937 0 1 0 1.875 0v-1.099a2.818 2.818 0 0 0 1.875-2.651 2.816 2.816 0 0 0-2.812-2.813ZM11.25 15.563c.518 0 .938-.42.938-.938v-3.75a.937.937 0 1 0-1.876 0v3.75c0 .518.42.938.938.938Z"/><path d="M44.25 22.125v-7.5a4.693 4.693 0 0 0-4.688-4.688h-5.25V2.814A2.816 2.816 0 0 0 31.5 0H14.062a2.816 2.816 0 0 0-2.812 2.813v3.374H8.437A2.816 2.816 0 0 0 5.626 9v.938h-.938A4.693 4.693 0 0 0 0 14.625v28.688A4.693 4.693 0 0 0 4.688 48h28.687a4.695 4.695 0 0 0 4.593-3.75h1.594a4.693 4.693 0 0 0 4.688-4.688v-2.437h.938A2.816 2.816 0 0 0 48 34.312v-8.437a3.754 3.754 0 0 0-3.75-3.75Zm1.875 3.75c0 1.036-.84 1.875-1.875 1.875V24c1.034 0 1.875.841 1.875 1.875Zm-6.563-14.063a2.816 2.816 0 0 1 2.813 2.813V27.75h-4.313v-5.625a4.695 4.695 0 0 0-3.75-4.593v-5.72h5.25Zm-26.437-9c0-.517.42-.937.938-.937H31.5c.517 0 .938.42.938.938v14.624h-4.313V9a2.816 2.816 0 0 0-2.813-2.813H13.126V2.813ZM22.5 17.438V8.063h2.813c.517 0 .937.42.937.937v8.438H22.5Zm-5.625 0V8.063h3.75v9.374h-3.75ZM7.5 9c0-.517.42-.938.938-.938H15v9.376H7.5V9Zm-2.813 2.813h.938v5.624h-.737c-1.55 0-3.013-1.122-3.013-2.812a2.816 2.816 0 0 1 2.813-2.813Zm28.688 34.312H4.687a2.816 2.816 0 0 1-2.812-2.813V18.317a5.049 5.049 0 0 0 3.013.995h28.487a2.816 2.816 0 0 1 2.813 2.813v5.625h-6.563a2.816 2.816 0 0 0-2.813 2.813v3.75a2.816 2.816 0 0 0 2.813 2.812h6.563v6.188a2.816 2.816 0 0 1-2.813 2.812Zm9-6.563a2.816 2.816 0 0 1-2.813 2.813h-1.5v-5.25h4.313v2.438Zm2.813-4.312H29.624a.938.938 0 0 1-.938-.938v-3.75c0-.517.42-.937.938-.937H44.25c.67 0 1.311-.175 1.875-.502v5.19c0 .517-.42.937-.938.937Z"/><path d="M39.563 31.5H35.25a.937.937 0 1 0 0 1.875h4.313a.937.937 0 1 0 0-1.875Z"/></g><defs><clipPath id="a"><path fill="#fff" d="M0 0h48v48H0z"/></clipPath></defs></svg>
